public/avatar/hat/8.svg

<svg xmlns:xlink="http://www.w3.org/1999/xlink" height="92.9" width="100.7" xmlns="http://www.w3.org/2000/svg"><g transform="translate(38.65 49.75)"><use height="17.55" transform="translate(4.65 -10.3)" width="20.05" xlink:href="#a"/><use height="17.55" transform="matrix(-1 0 0 1 -4.65 -10.4)" width="20.05" xlink:href="#a"/></g><defs><use height="17.55" width="20.05" xlink:href="#b" id="a"/><g id="b"><path d="M-9.05 6.5q-.9-1.45-.05-3.2 10.65.45 11.6-.1l.55-.45q3.6-3.8.85-8.15L2.05-8.3q6.1 2.95 7.1 6.7Q9.4.35 8.4 2 7.35 3.6 5.85 4.7 4.3 5.85 2.4 6l-3.9.3-3.85.2h-3.7" fill="#fff" fill-rule="evenodd" transform="translate(10 8.8)"/><path d="m9.15-1.6.1.4q.75 3.95-.3 5.9-1.05 1.95-2.7 2.7-1.65.75-3 .7L-7 8.25q-1.45-.8-2.05-1.75h3.7l3.85-.2L2.4 6q1.9-.15 3.45-1.3Q7.35 3.6 8.4 2q1-1.65.75-3.6" fill="#cce4ff" fill-rule="evenodd" transform="translate(10 8.8)"/><path d="m9.15-1.6.1.4q.75 3.95-.3 5.9-1.05 1.95-2.7 2.7-1.65.75-3 .7L-7 8.25q-1.45-.8-2.05-1.75-.9-1.45-.05-3.2 10.65.45 11.6-.1l.55-.45q3.6-3.8.85-8.15L2.05-8.3q6.1 2.95 7.1 6.7Z" fill="none" stroke="#333" stroke-linecap="round" stroke-linejoin="round" transform="translate(10 8.8)"/></g></defs></svg>

<?xml version="1.0" encoding="UTF-8" standalone="no"?>
<svg xmlns:xlink="http://www.w3.org/1999/xlink" height="92.9px" width="100.7px" xmlns="http://www.w3.org/2000/svg">
  <g transform="matrix(1.0, 0.0, 0.0, 1.0, 38.65, 49.75)">
    <use height="17.55" transform="matrix(1.0, 0.0, 0.0, 1.0, 4.65, -10.3)" width="20.05" xlink:href="#sprite0"/>
    <use height="17.55" transform="matrix(-1.0, 0.0, 0.0, 1.0, -4.65, -10.4)" width="20.05" xlink:href="#sprite0"/>
  </g>
  <defs>
    <g id="sprite0" transform="matrix(1.0, 0.0, 0.0, 1.0, 10.0, 8.8)">
      <use height="17.55" transform="matrix(1.0, 0.0, 0.0, 1.0, -10.0, -8.8)" width="20.05" xlink:href="#shape0"/>
    </g>
    <g id="shape0" transform="matrix(1.0, 0.0, 0.0, 1.0, 10.0, 8.8)">
      <path d="M-9.05 6.5 Q-9.95 5.05 -9.1 3.3 1.55 3.75 2.5 3.2 L3.05 2.75 Q6.65 -1.05 3.9 -5.4 L2.05 -8.3 Q8.15 -5.35 9.15 -1.6 9.4 0.35 8.4 2.0 7.35 3.6 5.85 4.7 4.3 5.85 2.4 6.0 L-1.5 6.3 -5.35 6.5 -9.05 6.5" fill="#ffffff" fill-rule="evenodd" stroke="none"/>
      <path d="M9.15 -1.6 L9.25 -1.2 Q10.0 2.75 8.95 4.7 7.9 6.65 6.25 7.4 4.6 8.15 3.25 8.1 L-7.0 8.25 Q-8.45 7.45 -9.05 6.5 L-5.35 6.5 -1.5 6.3 2.4 6.0 Q4.3 5.85 5.85 4.7 7.35 3.6 8.4 2.0 9.4 0.35 9.15 -1.6" fill="#cce4ff" fill-rule="evenodd" stroke="none"/>
      <path d="M9.15 -1.6 L9.25 -1.2 Q10.0 2.75 8.95 4.7 7.9 6.65 6.25 7.4 4.6 8.15 3.25 8.1 L-7.0 8.25 Q-8.45 7.45 -9.05 6.5 -9.95 5.05 -9.1 3.3 1.55 3.75 2.5 3.2 L3.05 2.75 Q6.65 -1.05 3.9 -5.4 L2.05 -8.3 Q8.15 -5.35 9.15 -1.6 Z" fill="none" stroke="#333333" stroke-linecap="round" stroke-linejoin="round" stroke-width="1.0"/>
    </g>
  </defs>
</svg>
